assets/Articulated lorry/Flat/articulated_lorry_flat.svg

<svg width="32" height="32" viewBox="0 0 32 32" fill="none" xmlns="http://www.w3.org/2000/svg">
<path d="M28 6H15C13.9 6 13 6.9 13 8V24H30V8C30 6.9 29.11 6 28 6Z" fill="#D3D3D3"/>
<path d="M12 12H5.60721C5.22645 12 4.87575 12.21 4.70541 12.55L2.31062 17.36C2.11022 17.78 2 18.24 2 18.7V19L3.002 21L2 23V24H12V12Z" fill="#00F397"/>
<path d="M28.9993 26H3.00071C2.45032 26 2 25.55 2 25V24H30V25C30 25.55 29.5597 26 28.9993 26Z" fill="#9B9B9B"/>
<path d="M4.49008 12.99H5.99008C6.54008 12.99 7.00008 13.45 7.00008 14V17C7.00008 17.55 6.55008 18 6.00008 18H2.08008C2.13008 17.78 2.21008 17.56 2.31008 17.36L4.49008 12.99ZM8.99345 13H10.0067C10.5531 13 11.0001 13.4491 11.0001 13.998V17.002C11.0001 17.5509 10.5531 18 10.0067 18H8.99345C8.4471 18 8.00008 17.5509 8.00008 17.002V13.998C8.00008 13.4491 8.4471 13 8.99345 13Z" fill="#00A6ED"/>
<path d="M10.68 8.44001L7.9 9.37001C6.76 9.75001 6 10.81 6 12H12V9.39001C12 8.70001 11.33 8.22001 10.68 8.44001Z" fill="#00D26A"/>
<path d="M17.43 21H15.57C15.26 21 15 20.75 15 20.43V8.57C15 8.26 15.25 8 15.57 8H17.43C17.74 8 18 8.25 18 8.57V20.43C18 20.75 17.74 21 17.43 21ZM22.4319 21H20.5681C20.2591 21 20 20.75 20 20.43V8.57C20 8.26 20.2492 8 20.5681 8H22.4319C22.7409 8 23 8.25 23 8.57V20.43C23 20.75 22.7508 21 22.4319 21ZM25.57 21H27.43C27.75 21 28 20.75 28 20.43V8.57C28 8.25 27.74 8 27.43 8H25.57C25.25 8 25 8.26 25 8.57V20.43C25 20.75 25.26 21 25.57 21Z" fill="#F4F4F4"/>
<path d="M6.27349 13.0317C6.19365 13.0112 6.11001 13.0003 6.02393 13.0003H4.48509L3.99268 13.9874V14.0003H7.00022V14C7.00022 13.548 6.68951 13.1567 6.27349 13.0317Z" fill="#212121"/>
<path d="M2.91 23H2V19H2.91C3.51 19 4 19.49 4 20.09V21.91C4 22.51 3.51 23 2.91 23Z" fill="#FFF478"/>
<path d="M11 25.5C11 27.433 9.433 29 7.5 29C5.567 29 4 27.433 4 25.5C4 23.567 5.567 22 7.5 22C9.433 22 11 23.567 11 25.5ZM17.5 29C19.3697 29 20.897 27.534 20.995 25.6887C21.093 27.534 22.6203 29 24.49 29C26.423 29 27.99 27.433 27.99 25.5C27.99 23.567 26.423 22 24.49 22C22.6203 22 21.093 23.466 20.995 25.3113C20.897 23.466 19.3697 22 17.5 22C15.567 22 14 23.567 14 25.5C14 27.433 15.567 29 17.5 29Z" fill="#321B41"/>
<path d="M9 25.5C9 26.3284 8.32843 27 7.5 27C6.67157 27 6 26.3284 6 25.5C6 24.6716 6.67157 24 7.5 24C8.32843 24 9 24.6716 9 25.5ZM17.5 27C18.3284 27 19 26.3284 19 25.5C19 24.6716 18.3284 24 17.5 24C16.6716 24 16 24.6716 16 25.5C16 26.3284 16.6716 27 17.5 27ZM24.5 27C25.3284 27 26 26.3284 26 25.5C26 24.6716 25.3284 24 24.5 24C23.6716 24 23 24.6716 23 25.5C23 26.3284 23.6716 27 24.5 27Z" fill="#F4F4F4"/>
<path d="M30 21H29.5004C28.6511 21 27.9617 21.71 28.0017 22.57C28.0416 23.38 28.741 24 29.5504 24H30V21Z" fill="#CA0B4A"/>
</svg>

<svg xmlns="http://www.w3.org/2000/svg" width="32" height="32" fill="none"><path fill="#D3D3D3" d="M28 6H15c-1.1 0-2 .9-2 2v16h17V8a2 2 0 0 0-2-2Z"/><path fill="#00F397" d="M12 12H5.607c-.38 0-.731.21-.902.55l-2.394 4.81c-.2.42-.311.88-.311 1.34v.3l1.002 2L2 23v1h10V12Z"/><path fill="#9B9B9B" d="M29 26H3c-.55 0-1-.45-1-1v-1h28v1c0 .55-.44 1-1 1Z"/><path fill="#00A6ED" d="M4.49 12.99h1.5c.55 0 1.01.46 1.01 1.01v3c0 .55-.45 1-1 1H2.08c.05-.22.13-.44.23-.64l2.18-4.37Zm4.503.01h1.014c.546 0 .993.45.993.998v3.004a.999.999 0 0 1-.993.998H8.993A.999.999 0 0 1 8 17.002v-3.004c0-.549.447-.998.993-.998Z"/><path fill="#00D26A" d="m10.68 8.44-2.78.93C6.76 9.75 6 10.81 6 12h6V9.39c0-.69-.67-1.17-1.32-.95Z"/><path fill="#F4F4F4" d="M17.43 21h-1.86a.57.57 0 0 1-.57-.57V8.57c0-.31.25-.57.57-.57h1.86c.31 0 .57.25.57.57v11.86c0 .32-.26.57-.57.57Zm5.002 0h-1.864a.569.569 0 0 1-.568-.57V8.57c0-.31.25-.57.568-.57h1.864c.309 0 .568.25.568.57v11.86c0 .32-.25.57-.568.57Zm3.138 0h1.86c.32 0 .57-.25.57-.57V8.57a.57.57 0 0 0-.57-.57h-1.86a.57.57 0 0 0-.57.57v11.86c0 .32.26.57.57.57Z"/><path fill="#212121" d="M6.273 13.032a1.002 1.002 0 0 0-.25-.032H4.486l-.492.987V14H7c0-.452-.31-.843-.727-.968Z"/><path fill="#FFF478" d="M2.91 23H2v-4h.91c.6 0 1.09.49 1.09 1.09v1.82c0 .6-.49 1.09-1.09 1.09Z"/><path fill="#321B41" d="M11 25.5a3.5 3.5 0 1 1-7 0 3.5 3.5 0 0 1 7 0Zm6.5 3.5a3.5 3.5 0 0 0 3.495-3.311 3.5 3.5 0 1 0 0-.378A3.5 3.5 0 1 0 17.5 29Z"/><path fill="#F4F4F4" d="M9 25.5a1.5 1.5 0 1 1-3 0 1.5 1.5 0 0 1 3 0Zm8.5 1.5a1.5 1.5 0 1 0 0-3 1.5 1.5 0 0 0 0 3Zm7 0a1.5 1.5 0 1 0 0-3 1.5 1.5 0 0 0 0 3Z"/><path fill="#CA0B4A" d="M30 21h-.5c-.849 0-1.538.71-1.498 1.57.04.81.739 1.43 1.548 1.43H30v-3Z"/></svg>
